X: 1617
T: O'Gallagher's Hornpipe
R: hornpipe
B: O'Neill's 1850 #1617
N: O'Gallagher
Z: Michael D. Long, 10/10/98
Z: Michael Hogan
M: C|
L: 1/8
K: G
   (Bc) | d^ced =cBAG | BAGF  GABc   | dgfg [1,3 edcB | AGFE D2 :|[2,4 ecAF | G2G2 G2 :|
|: (Bc) | dgfg   edBd | e^def g2(fg) | edcB cBAG | AGFE D2 ||
|  (EF) | GFGB  A^GAc | B^ABd efge   | BdBG AcAF | G2G2 G2 :|
